Sources/FrostedUI/Resources/Icons.xcassets/infoCircle20.imageset/info-circle-20.svg

<svg width="20" height="20" viewBox="0 0 20 20" fill="none" xmlns="http://www.w3.org/2000/svg" data-fui-icon="true">
  <path
    d="M10 1C14.9706 1 19 5.02944 19 10C19 14.9706 14.9706 19 10 19C5.02944 19 1 14.9706 1 10C1 5.02944 5.02944 1 10 1ZM10 2.5C5.85786 2.5 2.5 5.85786 2.5 10C2.5 14.1421 5.85786 17.5 10 17.5C14.1421 17.5 17.5 14.1421 17.5 10C17.5 5.85786 14.1421 2.5 10 2.5ZM10 8C10.4142 8 10.75 8.33579 10.75 8.75V13.5H12.25C12.6642 13.5001 13 13.8358 13 14.25C12.9999 14.6641 12.6641 14.9999 12.25 15H7.75C7.33583 15 7.00007 14.6642 7 14.25C7 13.8358 7.33579 13.5 7.75 13.5H9.25V9.5H7.75C7.33579 9.5 7 9.16421 7 8.75C7 8.33579 7.33579 8 7.75 8H10ZM10 5.00391C10.5522 5.00391 10.9999 5.45168 11 6.00391C11 6.55619 10.5523 7.00391 10 7.00391C9.44771 7.00391 9 6.55619 9 6.00391C9.00007 5.45168 9.44776 5.00391 10 5.00391Z"
    fill="currentColor"
  />
</svg>

<svg xmlns="http://www.w3.org/2000/svg" width="20" height="20" fill="none" data-fui-icon="true" viewBox="0 0 20 20"><path fill="currentColor" d="M10 1a9 9 0 1 1 0 18 9 9 0 0 1 0-18m0 1.5a7.5 7.5 0 1 0 0 15 7.5 7.5 0 0 0 0-15M10 8a.75.75 0 0 1 .75.75v4.75h1.5a.75.75 0 0 1 0 1.5h-4.5a.75.75 0 0 1 0-1.5h1.5v-4h-1.5a.75.75 0 0 1 0-1.5zm0-2.996a1 1 0 1 1 0 2 1 1 0 0 1 0-2"/></svg>
